X:1
T:Title
%%score ( 1 2 ) ( 3 4 )
L:1/8
Q:1/4=98
M:4/4
K:Bb
V:1 treble nm="Grand Piano, Soprano"
V:2 treble 
V:3 bass nm="Choir Pad, As the Day Breaks"
V:4 bass 
V:1
 [B,D][CE][DF][Fd] [Ec][DB] [DF]2 | [B,D][CE] [DF]2 [DF]4 | [B,D][CE][DF][Fd] [Ec][DB] [DF]2 | %3
w: By~Charles~Austin~Miles * * * * * *|||
 [DG][DB] [EA]6 | [EA][EB][Ec][E=B] [Ec][EA] [EG]2 | [EA][EG] [DF]2 [DF]4 | %6
w: |||
 [EA][DB] [Ec]2- [Ec][DB] [Fd]2 | [Ec]2 [DB]6 | [DB][DA] [EA]<[EG] [EG][EG] [EG]<[EG] | %9
w: |||
 [EA][EG] [EG]2 [DF]2 [DF]2 | [EA]>[DB] [Ec]4 [Ec]2 | [DB]>[Ec] [Fd]4 [Fd]2 | %12
w: |||
 [DB][DA] [EA]<[EG] [EG][EG] [EG]<[EG] | [EA][EG] [EG]2 [DF]2 [DF]2 | %14
w: ||
 [EA]>[DB] [Ec]2- [Ec][DB] [Fd]2 | z2 B6- | B6 z2 |] %17
w: |||
V:2
 x8 | x8 | x8 | x8 | x8 | x8 | x8 | x8 | x8 | x8 | x8 | x8 | x8 | x8 | x8 | [Ec]2 DD EC D2- | %16
 D6 z2 |] %17
V:3
 [B,,F,][B,,F,][B,,B,][B,,B,] [B,,B,][B,,B,] [B,,B,]2 | [B,,F,][B,,F,] [B,,B,]2 [B,,B,]4 | %2
 [B,,F,][B,,F,][B,,B,][B,,B,] [B,,B,][B,,B,] [B,,B,]2 | [B,,B,][B,,B,] [F,C]6 | %4
 [F,C][F,B,][F,A,][F,_A,] [F,=A,][F,C] [F,C]2 | [F,C][F,A,] [B,,B,]2 [B,,B,]4 | %6
 [F,C][F,B,] [F,A,]2- [F,A,][F,B,] [F,B,]2 | [F,A,]2 [B,,F,]6 | %8
 [B,,F,][B,,B,] [E,B,]<[E,B,] [E,B,][E,B,] [E,B,]<[E,B,] | %9
 [E,B,][E,B,] [B,,B,]2 [B,,B,]2 [B,,B,]2 | [F,C]>[F,B,] [F,A,]4 [F,A,]2 | %11
 [F,B,]>[F,A,] [B,,B,]4 [B,,B,]2 | [B,,F,][B,,B,] [E,B,]<[E,B,] [E,B,][E,B,] [E,B,]<[E,B,] | %13
 [E,B,][E,B,] [B,,B,]2 [B,,B,]2 [B,,B,]2 | [F,C]>[F,B,] [F,B,]2- [F,B,][F,B,] [F,B,]2 | %15
 [F,A,]2 F,F, G,=E, F,2- | F,6 z2 |] %17
V:4
 x8 | x8 | x8 | x8 | x8 | x8 | x8 | x8 | x8 | x8 | x8 | x8 | x8 | x8 | x8 | z2 B,,6- | B,,6 z2 |] %17

